assets/bank-tab/Asset/card.svg

<svg width="24" height="24" viewBox="0 0 24 24" fill="none" xmlns="http://www.w3.org/2000/svg">
<path d="M20.9217 10.2998C21.3816 10.2998 21.6115 10.2998 21.7573 10.4427C21.9031 10.5856 21.9078 10.8149 21.917 11.2734C21.9173 11.2897 21.9177 11.3059 21.918 11.3223C21.9338 12.1051 21.9331 12.8733 21.9161 13.6514C21.8527 16.5528 21.8201 18.0037 20.7998 19.002C19.7796 19.9998 18.2319 20 15.1368 20H8.78714C5.71913 20 4.18518 19.9998 3.16605 19.0078C2.14694 18.0157 2.10791 16.5879 2.03129 13.7324C2.00881 12.8949 2.00786 12.0708 2.02836 11.2295C2.03854 10.8117 2.04363 10.6028 2.1673 10.4654C2.18171 10.4493 2.19731 10.4341 2.21368 10.4201C2.35409 10.2998 2.56365 10.2998 2.98278 10.2998H20.9217ZM6.00004 15C5.44775 15 5.00004 15.4477 5.00004 16C5.00004 16.5523 5.44775 17 6.00004 17H8.00004C8.55232 17 9.00004 16.5523 9.00004 16C9.00004 15.4477 8.55232 15 8.00004 15H6.00004ZM15.1631 5C18.2469 5 19.789 4.99997 20.8096 6C21.1522 6.33577 21.3831 6.72126 21.5409 7.19418C21.6944 7.65433 21.7712 7.88441 21.6215 8.09211C21.4719 8.2998 21.1955 8.2998 20.6426 8.2998H3.31231C2.75856 8.2998 2.48168 8.2998 2.33204 8.09182C2.1824 7.88383 2.25961 7.65349 2.41404 7.1928C2.57274 6.71937 2.80508 6.33311 3.1514 5.99512C4.17111 5.00008 5.69771 5 8.75004 5H15.1631Z" fill="#83A2C2"/>
</svg>

<svg xmlns="http://www.w3.org/2000/svg" width="24" height="24" fill="none" viewBox="0 0 24 24"><path fill="#83a2c2" d="M20.922 10.3c.46 0 .69 0 .835.143s.15.372.16.83l.001.05c.016.782.015 1.55-.002 2.328-.063 2.902-.096 4.353-1.116 5.351S18.232 20 15.137 20h-6.35c-3.068 0-4.602 0-5.621-.992s-1.058-2.42-1.135-5.276a49 49 0 0 1-.003-2.502c.01-.418.016-.627.14-.765l.046-.045c.14-.12.35-.12.769-.12zM6 15a1 1 0 1 0 0 2h2a1 1 0 1 0 0-2zm9.163-10c3.084 0 4.626 0 5.647 1 .342.336.573.721.73 1.194.154.46.231.69.082.898s-.427.208-.98.208H3.313c-.553 0-.83 0-.98-.208s-.072-.439.082-.9a2.9 2.9 0 0 1 .737-1.197C4.171 5 5.698 5 8.75 5z"/></svg>
